X: 21288
T: Kelly's Bar
R: jig
M: 6/8
K: Dmajor
F|D2 D FED|AFA Bcd|D2 D FED|ECA, A,B,C|
D2 D FED|AFA Bcd|Acd efg|fdd d2:|
g|fdf afd|efd cBA|afd dcd|fee f2
g|aba afd|fdf ecA|dcd eag|fdd d2:|

